!!!!SEGMENT: pl-kc--40102-iii-1-saf--002-005_zielenski-mikolaj--communiones-totius-anni-feria-tertia-resurrectionis-domini-si-consurrexistis-cum-christo.krn
!!!cenid: 16xx:1536
!!!COM: Zieleński, Mikołaj
!!!COM-rismID: pe30013481
!!!CDT: <1611->1611
!!!CNT: Polish
!!!GTL: Communiones totius anni
!!!OTL: Feria tertia Resurrectionis Domini/Si consurrexistis cum Christo
!!!OMV: 005
!!!PDT: 1611
!!!AGN:
!!!SMS-siglum: PL-Kc
!!!SMS-shelfmark: 40102 III/1 Saf.
!!!SMS-shelfwork: 002-005 G
!!!SMS-variant:
!!!SMS-altvar:
!!!NIFC-rismSourceID: 990069887
!!!NIFC-rismChildID: 990069887
!!!NIFC-islandoraID: none
!!!URL-pdf-islandora:
!!!URL-scan: https://cyfrowe.mnk.pl/dlibra/publication/24235/edition/23926/content?ref=desc @EN{Scan on The National Museum in Krakow Website} @PL{Skany w portalu Biblioteka Cyfrowa Muzeum Narodowego w Krakowie}
!!!ONB-nifc: UWAGA: str. 48. Uwaga: W xml metrum 2/1 do źródłowego C| i odpowiednio 3/1 do 3/2
!!!AIN: 2 organ
!!!key:
**kern	**kern	**kern	**kern
*part2	*part2	*part1	*part1
*staff4	*staff3	*staff2	*staff1
*ICklav	*ICklav	*ICklav	*ICklav
*Iorgan	*Iorgan	*Iorgan	*Iorgan
*I"Organo	*I"Organo	*I"Organo	*I"Organo
*I'org	*I'org	*I'org	*I'org
*clefF3	*clefC3	*clefC2	*clefG2
*k[]	*k[]	*k[]	*k[]
*d:	*d:	*d:	*d:
*M2/1	*M2/1	*M2/1	*M2/1
*met(c|)	*met(c|)	*met(c|)	*met(c|)
=1	=1	=1	=1
!	!	!	!LO:TX:b:t=Si conſurrexiſtis cum Chriſto.
!	!	!	!LO:TX:a:t=Feria tertia Reſurrećtionis Domini.    Solus Cantus canet.
1r	1d	1f	1a
1D	1.d	2f\	2a/
.	.	2.a\	2.ff\
=2	=2	=2	=2
2D/	.	.	.
.	.	4g\	4ee\
1d	1a	4f\	4dd\
.	.	4e/	4ee\
.	.	2d/	4ff\
.	.	.	4dd\
2c#X\	2e\	4a\	2ee\
.	.	4g\	.
=3	=3	=3	=3
1d	2f\	4f\	2.a/
.	.	4e\	.
.	2d\	4f\	.
.	.	4g\	4b/
2A\	2.e\	2a\	4cc\
.	.	.	4dd\
2c\	.	2.a\	2ee\
.	4e\	.	.
=4	=4	=4	=4
1B-X	2f\	.	2.dd\
.	.	8g\	.
.	.	8f\	.
.	4e\	2g\	.
.	4d\	.	4dd\
1A	2e\	1.a	2cc#X\
.	2c#X/	.	2ee\
=5	=5	=5	=5
1r	1d	.	2ff\
.	.	1b	1dd
1E	2e\	.	.
.	2.e\	2a\	2cc\
=6	=6	=6	=6
2E/	.	2g#X\	2b/
.	4d\	.	.
1A	4c/	1a	2.cc\
.	4B/	.	.
.	2A/	.	.
.	.	.	4dd\
2G#X\	2B/	2e/	2.ee\
!!linebreak:original
=7	=7	=7	=7
2.A\	1.c	1.e	.
.	.	.	4cc\
.	.	.	4ee\
8G\	.	.	4ff\
8F\	.	.	.
2E/	.	.	4gg\
.	.	.	4g/
2G\	2B/	1d/	4b/
.	.	.	4cc\
=8	=8	=8	=8
2F/	2A/	.	4dd\
.	.	.	4a/
4E/	2f\	2a\	2.dd\
4D/	.	.	.
1A	1e	2.a\	.
.	.	.	8cc#X\
.	.	.	8b\
.	.	.	2cc#\
.	.	4g\	.
=9	=9	=9	=9
1D	2d\	2f#X\	2.dd\
.	2f\	2a\	.
.	.	.	4dd\
2r	2e\	2g\	2cc#X\
2d\	2f\	2.a\	2dd\
=10	=10	=10	=10
2c#X\	2e\	.	1a
.	.	4g\	.
2d\	2d\	2f\	.
1A	2c#X/	2e/	2r
.	4r	2a\	2cc\
.	4A/	.	.
=11	=11	=11	=11
2r	2e\	2g#X\	2b/
2A\	2e\	1a	2cc#X\
2F#X/	4d\	.	1dd
.	4c/	.	.
2G\	4B/	2d/	.
.	4A/	.	.
=12	=12	=12	=12
1C	2.G/	2e/	2r
.	.	2cc\	2ee\
.	4c/	.	.
2r	2g\	2b\	2dd\
2c\	2.g\	2cc#X\	2ee\
=13	=13	=13	=13
2B\	.	2dd\	1gg
.	4f\	.	.
2c\	4e\	2g\	.
.	4d\	.	.
1F	2c/	4a\	2r
.	.	4g\	.
.	2c/	4f\	2.aa\
.	.	4e\	.
=14	=14	=14	=14
2r	2d\	2f\	.
.	.	.	4gg\
1D	2.d\	1a	4ff\
.	.	.	4ee\
.	.	.	2ff\
.	8c/	.	.
.	8B/	.	.
2D/	4A/	2dd\	2ff\
.	4B/	.	.
=15	=15	=15	=15
1A	4c/	2.cc\	2.ee\
.	4d\	.	.
.	2e\	.	.
.	.	4b\	4dd\
2r	2f\	2a\	4cc\
.	.	.	4a/
1F\	2.f\	1a\	2dd\
=16	=16	=16	=16
.	.	.	2cc\
.	8e\	.	.
.	8d\	.	.
2F/	4c/	2a\	2.ff\
.	4d\	.	.
*custos:A	*	*	*
1c	2e\	2g\	.
.	.	.	4ee\
*	*custos:d	*custos:a	*custos:dd
.	2A/	<1a\	2.ee\
!!LO:LB:g=original
=17	=17	=17	=17
1r	1d	.	.
!	!	!	!LO:TX:t=P:problem=niezgodny pion harmoniczny?
.	.	.	8dd#X\
.	.	.	8cc\
.	.	4g\	2ddn\
.	.	4f\	.
2r	2.c/	2e/	1ee
1A\	.	1cc\	.
.	4d\	.	.
=18	=18	=18	=18
.	4e\	.	0r
.	4c/	.	.
2G\	2d\	2.b\	.
2F/	2A/	.	.
.	.	4a\	.
2D/	4d\	2.a\	.
.	4c/	.	.
=19	=19	=19	=19
2E/	4B/	.	1r
.	4A/	8g#X\	.
.	.	8f\	.
2E/	2B/	2g#\	.
1A	2.c/	2.a\	2r
.	.	.	1aa\
.	4d\	4b\	.
=20	=20	=20	=20
1r	4e\	4cc\	.
.	4f\	4dd\	.
.	2e\	1ee	1gg
2r	2.a\	.	.
[<2d\	.	2dd\	2ff\
.	8g\	.	.
.	8f\	.	.
=21	=21	=21	=21
2d\]	2g\	2ee\	2.ee\
2c\	2e\	2a\	.
.	.	.	8ff\
.	.	.	8ee\
2B-X\	2f\	2b-X\	2dd\
2G\	1g\	2b-\	2.ee\
=22	=22	=22	=22
1.A	.	1a	.
.	.	.	4ee\
.	2f\	.	2.dd\
.	1e	1a	.
.	.	.	8cc#X\
.	.	.	8b\
2A\	.	.	2cc#\
=23	=23	=23	=23
2.D/	2f#X\	2a\	1dd
.	2a\	2f#X\	.
4d\	.	.	.
4B\	2.d\	2g\	2r
8B\	.	.	.
8B\	.	.	.
4G\	.	2b\	2gg\
4G\	4d\	.	.
=24	=24	=24	=24
1c	2e\	2g\	4ee\
.	.	.	8ee\
.	.	.	8ee\
.	2A/	4a\	4cc\
.	.	4a\	4cc\
2F/	4A/	2.a\	2ff\
.	8A/	.	.
.	8A/	.	.
4r	4c/	.	2ee\
4A\	4c/	4e/	.
=25	=25	=25	=25
4E/	4e\	4g\	0r
8E/	4e\	8g\	.
8E/	.	8g\	.
4G\	4B/	4d/	.
4G\	4B/	4d/	.
4D/	2d\	1f	.
4E/	.	.	.
4F/	1d\	.	.
4D/	.	.	.
=26	=26	=26	=26
1A	.	2.e/	2r
.	2c#X/	.	2aa\
.	.	4a\	.
1r	4.d\	4a\	4ff#X\
.	.	8a\	8ff#\
.	8d\	8a\	8ff#\
.	4B/	4d/	4gg\
.	4B/	4d/	4gg\
!!linebreak:original
=27	=27	=27	=27
2r	2.c/	2.e/	1ee
2A\	.	.	.
.	4c/	4e/	.
4F/	2.A/	1d	2a/
8F/	.	.	.
8F/	.	.	.
4D/	.	.	2aa\
4D/	4B/	.	.
=28	=28	=28	=28
0A	2c#X/	2e/	4aa\
.	.	.	8aa\
.	.	.	8aa\
.	2d\	2a\	4ff\
.	.	.	4ff\
.	2e\	4cc#X\	2ee\
.	.	8cc#\	.
.	.	8cc#\	.
.	2d\	4dd\	2ff\
.	.	4dd\	.
=29	=29	=29	=29
1A	2.a\	4dd\	1ee
.	.	8cc#X\	.
.	.	8b\	.
.	.	2cc#\	.
.	4g\	.	.
1D	1f#X	1dd	1dd
=30	=30	=30	=30
*M3/2	*M3/2	*M3/2	*M3/2
1d	1f	1a	1dd
1d	1f	1a	1ff
1c#X	1a	1e	1ee
=31	=31	=31	=31
1.d	0f	0a	0.dd
2c\	.	.	.
2B-X\	1f	1d	.
2A\	.	.	.
=32	=32	=32	=32
1G	1g	1b-X	1dd
1G	1g	1b-	1ee
1B-X	1d	1g	1dd
=33	=33	=33	=33
1.A	2e\	0g	1cc
.	2d\	.	.
.	2c/	.	1.ff
2G\	2B/	.	.
1F	1A	1a	.
.	.	.	2ee\
=34	=34	=34	=34
1C	1e	0a	0ee
0D	0f	.	.
.	.	1b	1dd
=35	=35	=35	=35
*M2/1	*M2/1	*M2/1	*M2/1
*met(c|)	*met(c|)	*met(c|)	*met(c|)
1A	2.e\	2cc\	2ee\
.	.	2a\	2cc\
.	4f\	.	.
=36	=36	=36	=36
1r	2d\	2a\	2dd\
.	2e\	2g#X\	2b/
2r	4A/	2.a\	1a
.	4B/	.	.
2F/	4c/	.	.
.	4A/	4a\	.
=37	=37	=37	=37
*	*	*	*custos:ee
2G\	4B/	2d/	0r
.	8A/	.	.
.	8B/	.	.
2E/	2c#X/	2g\	.
2D/	2.d\	2f\	.
*custos:B	*	*custos:f	*
1B-X\	.	1f\	.
*	*custos:f	*	*
.	4e\	.	.
!!LO:LB:g=original
=38	=38	=38	=38
.	4f\	.	1r
.	4d\	.	.
2G\	4e\	2g\	.
.	4d\	.	.
1A	2.c#X/	2.e/	2r
.	.	.	2ee\
.	4c#/	4a\	.
=39	=39	=39	=39
0r	2d\	2a\	2ff\
.	2g\	2b\	2dd\
.	2c/	2cc\	2ee\
.	[<2f\	[<2a\	[<2cc\
=40	=40	=40	=40
1r	2f\]	2a\]	2cc\]
.	2d\	2b\	2dd\
2r	2.e\	2g#X\	2b/
2A\	.	2a\	2r
.	4c#X/	.	.
=41	=41	=41	=41
2B-X\	2d\	2f\	1r
2G\	2e\	2g\	.
2.F/	2f\	1a	2r
.	2.d\	.	2ff\
4F/	.	.	.
=42	=42	=42	=42
1E	.	1r	2gg\
.	8c#X/	.	.
.	8B/	.	.
.	2c#/	.	2ee\
2D/	2d\	2r	2ff\
2A\	2e\	4cc\	1ee\
.	.	4b\	.
=43	=43	=43	=43
2.F/	1f	4a\	.
.	.	4g\	.
.	.	2a\	2.dd\
8E/	.	.	.
8D/	.	.	.
1A	1e	2.a\	.
.	.	.	8cc#X\
.	.	.	8b\
.	.	.	2cc#\
.	.	4g\	.
=44	=44	=44	=44
1D	1d	1f#X	1dd
=45	=45	=45	=45
*M3/2	*M3/2	*M3/2	*M3/2
1d	1f	1a	1dd
1d	1f	1a	1ff
1c#X	1a	1e	1ee
=46	=46	=46	=46
1.d	0f	0a	0.dd
2c\	.	.	.
2B-X\	1f	1d	.
2A\	.	.	.
=47	=47	=47	=47
1G	1g	1b-X	1dd
1G	1g	1b-	1ee
1B-X	1d	1g	1dd
=48	=48	=48	=48
1.A	2e\	0a	1cc
.	2d\	.	.
.	2c/	.	1.ff
2G\	2B/	.	.
1F	1A	1a	.
.	.	.	2ee\
=49	=49	=49	=49
1C	1e	0a	0ee
0D	0f	.	.
.	.	1b	1dd
=50	=50	=50	=50
*M2/1	*M2/1	*M2/1	*M2/1
*met(C|)	*met(C|)	*met(C|)	*met(C|)
2A\	2.e\	2cc\	2.ee\
2E/	.	1b	.
.	8d\	.	2gg\
.	8c\	.	.
2G\	4B/	.	.
.	2d\	.	2dd\
2D/	.	[2a\	.
.	8c/	.	[4ff\
.	8B/	.	.
=51	=51	=51	=51
2F/	4A/	2a\]	4ff\]
.	2c/	.	4cc\
2C/	.	1g	2.ee\
.	8B/	.	.
.	8A/	.	.
2E/	4.G/	.	.
.	.	.	4b/
.	8A/	.	.
2BB/	4B/	2.g\	2.dd\
.	4d\	.	.
=52	=52	=52	=52
2.D/	2A/	.	.
.	.	4f\	4a/
.	2.d\	1a	2.ff\
4E/	.	.	.
2.F/	.	.	.
.	4c/	.	4ee\
.	2f\	2a\	2.dd\
4G\	.	.	.
=53	=53	=53	=53
2A\	1e	2.a\	.
.	.	.	8cc#X\
.	.	.	8b\
2A\	.	.	2cc#\
.	.	4g\	.
2D/	4e\	2f#X\	2dd\
.	4c/	.	.
1G\	4B-X/	1g\	1dd\
.	4A/	.	.
=54	=54	=54	=54
.	4B-X/	.	.
.	4G/	.	.
2F#X/	1d	2a\	2dd\
1G	.	1b-X	1dd
.	1g\	.	.
=55	=55	=55	=55
00D	.	00a	00dd
.	4f#X\	.	.
.	4e\	.	.
.	0.f#Xl	.	.
==	==	==	==
*-	*-	*-	*-
!!!system-decoration: s1,s2,s3,s4
!!!RDF**kern: l = terminal long
!!!RDF**kern: > = above
!!!RDF**kern: < = below
!!!ENC: Filip Voros
!!!END: 2021-12-17
!!!ENC: Leszek Kubiak
!!!END: 2021-12-21
!!!YEC: Copyright 2022 Narodowy Instytut Fryderyka Chopina (https://polishscores.org)
!!!YEM: License CC-BY-4.0 (https://creativecommons.org/licenses/by/4.0)
